icons/tracked-by-closed-completed-16.svg

<svg width="16" height="16" viewBox="0 0 16 16" fill="none" xmlns="http://www.w3.org/2000/svg">
<path d="M1.5 8C1.5 4.41015 4.41015 1.5 8 1.5C11.5899 1.5 14.5 4.41015 14.5 8C14.5 8.41421 14.8358 8.75 15.25 8.75C15.6642 8.75 16 8.41421 16 8C16 3.58172 12.4183 0 8 0C3.58172 0 0 3.58172 0 8C0 12.4183 3.58172 16 8 16C8.41421 16 8.75 15.6642 8.75 15.25C8.75 14.8358 8.41421 14.5 8 14.5C4.41015 14.5 1.5 11.5899 1.5 8Z" fill="black"/>
<path d="M8.67678 12.4268L11.5732 15.3232C11.7307 15.4807 12 15.3692 12 15.1464V13H15.25C15.6642 13 16 12.6642 16 12.25C16 11.8358 15.6642 11.5 15.25 11.5H12V9.35355C12 9.13083 11.7307 9.01929 11.5732 9.17678L8.67678 12.0732C8.57915 12.1709 8.57915 12.3291 8.67678 12.4268Z" fill="black"/>
<path d="M11.2803 6.78033C11.5732 6.48744 11.5732 6.01256 11.2803 5.71967C10.9874 5.42678 10.5126 5.42678 10.2197 5.71967L7.25 8.68934L5.78033 7.21967C5.48744 6.92678 5.01256 6.92678 4.71967 7.21967C4.42678 7.51256 4.42678 7.98744 4.71967 8.28033L6.71967 10.2803C7.01256 10.5732 7.48744 10.5732 7.78033 10.2803L11.2803 6.78033Z" fill="black"/>
</svg>

<svg xmlns="http://www.w3.org/2000/svg" width="16" height="16" viewBox="0 0 16 16"><path d="M1.5 8a6.5 6.5 0 1 1 13 0A.75.75 0 0 0 16 8a8 8 0 1 0-8 8 .75.75 0 0 0 0-1.5A6.5 6.5 0 0 1 1.5 8Z"/><path d="m8.677 12.427 2.896 2.896a.25.25 0 0 0 .427-.177V13h3.25a.75.75 0 0 0 0-1.5H12V9.354a.25.25 0 0 0-.427-.177l-2.896 2.896a.25.25 0 0 0 0 .354ZM11.28 6.78a.749.749 0 1 0-1.06-1.06L7.25 8.689 5.78 7.22a.749.749 0 1 0-1.06 1.06l2 2a.749.749 0 0 0 1.06 0l3.5-3.5Z"/></svg>
